X: 56
T: Hora Primaveriy (Springtime Hora)
R: hora
O:
Q: 1/4=48
B: German Goldenshteyn "Shpilt klezmorimlach klingen zoln di gesalach" New York 2003 v.3 #56
Z: 2013 John Chambers <jc:trillian.mit.edu>
M: 2/4
L: 1/16
K: Em
E2z2{^D}E2 {D}E2z2{^D}E2 | {^D}E2z2{D}E2 {D}E2 zB,EG |: B2z2B2 ^A2z2A2 | B2z2B2 G4FE | A6- A3GFE |
B6- B3B,EG | B2z2B2 ^A2z2A2 | B2z2B2 G4FE | A6- A3GFE |[1 E6- E3B,EG :|[2 E12 |]
|: E4E2 B4B2 | A3BGA B6 | d4(^ce) =c4B2 | B6B4 {B^ABc^cd^d} | e2B4 c2A4 |
B2G4 F2D4 | B4F2 F2A2=F2 | E3^FGA B3cd^d | e2B4 c2A4 | B2G4 F2D4 | G4F2 F2A2=F2 | E12 |]

